X: 293
T: Kan dauqing
L: 1/8
M: 3/8
K: D
e e f [I:setbarnb 1]| 
d c B | 
e e f | 
A3 | 
e e f | 
d c B | 
A/ B/ A E | 
D3 | 
F E D | 
d d d/ e/ | 
B A E | 
D2E | 
A A A/ B/ | 
d F E | 
D3 |]

@@@ Tune index: 9167
